X:1
T:On his deathbed - Webbe
T:#
%%score [ 1 2 3 ]
L:1/8
Q:1/4=80
M:4/4
K:C
V:1 treble nm="Alto"
V:2 treble-8 nm="Tenor"
V:3 bass nm="Bass"
V:1
"^larghetto""^On his deathbed""^Matthew Prior\n(1667-1721)" z4"^Samuel Webbe\n(1740-1816)" C2 D2 | %1
w: On his|
 E2 E2 C4 | D6 D2 | E6 C2 | c6 B2 |[M:4/4] A4 A4 | ^G6!p! G2 | A2 E2 A2 =G2 | F4 z4 | F2 z2 D2 z2 | %10
w: death- bed poor|Lu- bin|lies, His|spouse is|in de-|spair; With|fre- quent, fre- quent|sobs,|sobs and|
 _E6 E2 | D4!mp! D4 | D4 z2 F2 | E4 A4 | A4 ^G4 | A8 :: z2!f! A2 A2 A2 | A4 G4 | A4 (G2 F2) | %19
w: mu- tual|cries, They|both, they|both ex-|press their|care.|A diff'- rent|cause, says|Par- son *|
 E2 c2 c2 G2 | A4 z2 A2 | A4 G4 | G4 F4 | E6!p! E2 | F4 ^F4 | G2 D2 G2 G2 | ^G2"^cresc." G2 G2 G2 | %27
w: Sly, The same ef-|fect, the|same ef-|fect may|give; Poor|Lu- bin|fears that he shall|die, that he shall|
 !>!A6!p! E2 | F6 E2 | D4 C4 | B,6 B,2 | C2 E2 z2 C2 | D2 B,2 z4 | B,2!f! D2 C2 E2 | %34
w: die, His|wife that|he may|live. Poor|Lu- bin, poor|Lu- bin|fears that he shall|
 !>!F4 z2!p! D2 | C4 z2 C2 | F4 z4 | z2 D2 C2 B,2 | A,8 :| %39
w: die, His|wife, his|wife|that he may|live.|
V:2
 z4 A2 B2 | c2 c2 A4 | B6 B2 | c6 e2 | e6 d2 |[M:4/4][K:treble-8] (c3 B) (c2 d2) | e3!p! d c2 B2 | %7
w: On his|death- bed poor|Lu- bin|lies, His|spouse is|in * de\- *|spair; With fre- quent|
 c4 z2 ^c2 | d2 A2 d2 =c2 | B2 z2 B2 z2 | c6 c2 | c4!mp! B4 | B4 z2 d2 | d4 c4 | B4 B4 | c8 :: %16
w: sobs, with|fre- quent, fre- quent|sobs and|mu- tual|cries, They|both, they|both ex-|press their|care.|
 z2!f! c2 c2 c2 | c8 | z2 c2 d2 d2 | G4 z4 | z2 f2 f2 c2 | d2 d2 d2 d2 | ^c4 d4 | ^c6!p! c2 | %24
w: A diff'- rent|cause,|says Par- son|Sly,|The same ef-|fect, the same ef-|fect may|give; Poor|
 (d2 A2) A4 | d6 d2 | d4"^cresc." d4 | !>!c6!p! c2 | d6 c2 | B4 A4 | ^G6 G2 | A2 c2 z2 A2 | %32
w: Lu\- * bin|fears that|he shall|die, His|wife that|he may|live Poor|Lu- bin, poor|
 B2 ^G2 z4 | ^G2!f! B2 A2 c2 | !>!d4 z4 | z4!p! e4 | z4 d4- | d2 B2 A2 ^G2 | A8 :| %39
w: Lu- bin|fears that he shall|die,|fears,|fears|* that he may|live.|
V:3
 A,,6 A,,2 | A,,2 A,,2 A,4 | G,6 G,2 | C,6 C,2 | C,6 C,2 |[M:4/4] F,4 F,4 | E,8 | %7
w: On his|death- bed poor|Lu- bin|lies, His|spouse is|in de-|spair;|
 z2!p! A,2 A,2 A,2 | D,2 z2 D,2 z2 | G,8- | G,4 ^F,4 | G,4!mp! G,4 | ^G,4 z2 G,2 | A,4 A,4 | %14
w: with fre- quent|sobs and|mu\-|* tual|cries, They|both, they|both ex-|
 E,4 E,4 | A,8 :: z2!f! F,2 F,2 F,2 | F,4 E,4 | F,4 _B,,4 | C,6 C,2 | F,6 F,2 | _B,2 B,2 B,2 G,2 | %22
w: press their|care.|A diff'- rent|cause, says|Par- son|Sly, The|same ef-|fect, the same ef-|
 A,4 A,4 | A,6!p! A,2 | D,4 C,4 | B,,6 B,2 | B,4"^cresc." E,4 | !>!A,6!p! A,2 | D,6 D,2 | %29
w: fect may|give; Poor|Lu- bin|fears that|he shall|die, His|wife that|
 D,4 ^D,4 | E,6 E,2 | A,2 A,2 C4 | z4 E,4 | z2!f! E,2 A,2 A,2 | !>!^G,4 z2!p! G,2 | A,4 z2 A,2 | %36
w: he may|live Poor|Lu- bin fears,|fears|that he shall|die, His|wife, his|
 D,4 z4 | z2 D,2 E,2 E,2 | A,,8 :| %39
w: wife|that he may|live.|

